Numix-Light/16/status/indicator-keyboard-Fo-1.svg

<?xml version="1.0" encoding="UTF-8" standalone="no"?>
<svg
   xmlns:dc="http://purl.org/dc/elements/1.1/"
   xmlns:cc="http://creativecommons.org/ns#"
   xmlns:rdf="http://www.w3.org/1999/02/22-rdf-syntax-ns#"
   xmlns:svg="http://www.w3.org/2000/svg"
   xmlns="http://www.w3.org/2000/svg"
   xmlns:sodipodi="http://sodipodi.sourceforge.net/DTD/sodipodi-0.dtd"
   xmlns:inkscape="http://www.inkscape.org/namespaces/inkscape"
   viewBox="0 0 16 16"
   id="svg2"
   version="1.1"
   inkscape:version="0.91 r13725"
   sodipodi:docname="indicator-keyboard-Fo-1.svg">
  <metadata
     id="metadata14">
    <rdf:RDF>
      <cc:Work
         rdf:about="">
        <dc:format>image/svg+xml</dc:format>
        <dc:type
           rdf:resource="http://purl.org/dc/dcmitype/StillImage" />
      </cc:Work>
    </rdf:RDF>
  </metadata>
  <defs
     id="defs12" />
  <sodipodi:namedview
     pagecolor="#ffffff"
     bordercolor="#666666"
     borderopacity="1"
     objecttolerance="10"
     gridtolerance="10"
     guidetolerance="10"
     inkscape:pageopacity="0"
     inkscape:pageshadow="2"
     inkscape:window-width="640"
     inkscape:window-height="480"
     id="namedview10"
     showgrid="false"
     inkscape:zoom="14.75"
     inkscape:cx="8"
     inkscape:cy="8"
     inkscape:window-x="65"
     inkscape:window-y="24"
     inkscape:window-maximized="0"
     inkscape:current-layer="svg2" />
  <path
     style="fill:#353535;fill-opacity:1"
     d="M 1.5996094 0 C 0.71320937 2.9605947e-16 0 0.71320937 0 1.5996094 L 0 14.400391 C 2.9605947e-16 15.286791 0.71320937 16 1.5996094 16 L 14.400391 16 C 15.286791 16 16 15.286791 16 14.400391 L 16 1.5996094 C 16 0.71320937 15.286791 0 14.400391 0 L 1.5996094 0 z M 2.4160156 4.859375 L 5.9707031 4.859375 L 5.9707031 5.390625 L 3.0273438 5.390625 L 3.0273438 7.5859375 L 5.6367188 7.5859375 L 5.6367188 8.1171875 L 3.0273438 8.1171875 L 3.0273438 11.095703 L 2.4160156 11.095703 L 2.4160156 4.859375 z M 8.9003906 6.3359375 C 9.2123906 6.3359375 9.4978594 6.395625 9.7558594 6.515625 C 10.01386 6.629625 10.235875 6.7937656 10.421875 7.0097656 C 10.613875 7.2197656 10.759328 7.4753906 10.861328 7.7753906 C 10.969328 8.0753906 11.023438 8.4074375 11.023438 8.7734375 C 11.023438 9.1394375 10.969328 9.4734375 10.861328 9.7734375 C 10.759328 10.073438 10.613875 10.327109 10.421875 10.537109 C 10.235875 10.747109 10.01386 10.913203 9.7558594 11.033203 C 9.4978594 11.147203 9.2123906 11.203125 8.9003906 11.203125 C 8.5883906 11.203125 8.3029219 11.147203 8.0449219 11.033203 C 7.7869219 10.913203 7.5630938 10.747109 7.3710938 10.537109 C 7.1850938 10.327109 7.0376875 10.073438 6.9296875 9.7734375 C 6.8276875 9.4734375 6.7753906 9.1394375 6.7753906 8.7734375 C 6.7753906 8.4074375 6.8276875 8.0753906 6.9296875 7.7753906 C 7.0376875 7.4753906 7.1850937 7.2197656 7.3710938 7.0097656 C 7.5630938 6.7937656 7.7869219 6.629625 8.0449219 6.515625 C 8.3029219 6.395625 8.5883906 6.3359375 8.9003906 6.3359375 z M 8.9003906 6.8652344 C 8.4383906 6.8652344 8.0727344 7.0406719 7.8027344 7.3886719 C 7.5327344 7.7306719 7.3964844 8.1914375 7.3964844 8.7734375 C 7.3964844 9.3554375 7.5327344 9.818156 7.8027344 10.160156 C 8.0727344 10.502156 8.4383906 10.673828 8.9003906 10.673828 C 9.3623906 10.673828 9.7280469 10.502156 9.9980469 10.160156 C 10.268047 9.8181561 10.402344 9.3554375 10.402344 8.7734375 C 10.402344 8.1914375 10.268047 7.7306719 9.9980469 7.3886719 C 9.7280469 7.0406719 9.3623906 6.8652344 8.9003906 6.8652344 z M 13.316406 8.8417969 L 13.583984 8.8417969 L 13.583984 12.896484 L 13.205078 12.896484 L 13.205078 9.421875 C 13.162178 9.468675 13.105356 9.5157063 13.035156 9.5664062 C 12.968856 9.6171063 12.892441 9.66805 12.806641 9.71875 C 12.720841 9.76555 12.630709 9.812575 12.537109 9.859375 C 12.443509 9.902275 12.349459 9.9375437 12.255859 9.9648438 L 12.144531 9.671875 C 12.378531 9.5899751 12.588184 9.4880813 12.771484 9.3632812 C 12.954784 9.2345813 13.137006 9.0601969 13.316406 8.8417969 z "
     id="path4" />
</svg>

<svg xmlns="http://www.w3.org/2000/svg" viewBox="0 0 16 16">
 <path d="m 1.6 0 c -0.886 0 -1.6 0.713 -1.6 1.6 l 0 12.801 c 0 0.886 0.713 1.6 1.6 1.6 l 12.801 0 c 0.886 0 1.6 -0.713 1.6 -1.6 l 0 -12.801 c 0 -0.886 -0.713 -1.6 -1.6 -1.6 l -12.801 0 z m 0.816 4.859 l 3.555 0 l 0 0.531 l -2.943 0 l 0 2.195 l 2.609 0 l 0 0.531 l -2.609 0 l 0 2.979 l -0.611 0 l 0 -6.236 z m 6.484 1.477 c 0.312 0 0.597 0.06 0.855 0.18 c 0.258 0.114 0.48 0.278 0.666 0.494 c 0.192 0.21 0.337 0.466 0.439 0.766 c 0.108 0.3 0.162 0.632 0.162 0.998 c 0 0.366 -0.054 0.7 -0.162 1 c -0.102 0.3 -0.247 0.554 -0.439 0.764 c -0.186 0.21 -0.408 0.376 -0.666 0.496 c -0.258 0.114 -0.543 0.17 -0.855 0.17 c -0.312 0 -0.597 -0.056 -0.855 -0.17 c -0.258 -0.12 -0.482 -0.286 -0.674 -0.496 c -0.186 -0.21 -0.333 -0.464 -0.441 -0.764 c -0.102 -0.3 -0.154 -0.634 -0.154 -1 c 0 -0.366 0.052 -0.698 0.154 -0.998 c 0.108 -0.3 0.255 -0.556 0.441 -0.766 c 0.192 -0.216 0.416 -0.38 0.674 -0.494 c 0.258 -0.12 0.543 -0.18 0.855 -0.18 z m 0 0.529 c -0.462 0 -0.828 0.175 -1.098 0.523 c -0.27 0.342 -0.406 0.803 -0.406 1.385 c 0 0.582 0.136 1.045 0.406 1.387 c 0.27 0.342 0.636 0.514 1.098 0.514 c 0.462 0 0.828 -0.172 1.098 -0.514 c 0.27 -0.342 0.404 -0.805 0.404 -1.387 c 0 -0.582 -0.134 -1.043 -0.404 -1.385 c -0.27 -0.348 -0.636 -0.523 -1.098 -0.523 z m 4.416 1.977 l 0.268 0 l 0 4.055 l -0.379 0 l 0 -3.475 c -0.043 0.047 -0.1 0.094 -0.17 0.145 c -0.066 0.051 -0.143 0.102 -0.229 0.152 c -0.086 0.047 -0.176 0.094 -0.27 0.141 c -0.094 0.043 -0.188 0.078 -0.281 0.105 l -0.111 -0.293 c 0.234 -0.082 0.444 -0.184 0.627 -0.309 c 0.183 -0.129 0.366 -0.303 0.545 -0.521 z" style="fill:#353535;fill-opacity:1"/>
</svg>
